X: 1
T: Angus Chisholm's Favourite
C: trad.
O: as played by Andrea Beaton
R: reel
S: Fiddle Hell Online 2021-11-3
Z: 2022 John Chambers <jc:trillian.mit.edu>
M: 4/4
L: 1/8
K: C
|:\
G2GE c2cG | E2EG FDDE | C2CE c2cd |[1 egdg edcA :|
[2 egdg eccG |] c2ce gage | gage fdde |
c2ce gage | abag edcA || c2ce gage |
gage fddb | afgf edcG | Abag edcA |]

